X: 7
T:Humours of Kilkenny, The
M:9/8
L:1/8
R:Slip Jig
K:G
G2g gag dBG|A2B c2d ecA|G2g gag dBG|ege faf gdB|!
G2g gag dBG|A2B c2d ecA|G2g gag dBG|AcA BGE E3|]!
e2f geg fdB|e2f g2a bge|gbg faf g2e|dBA BGE E3|!
e2f geg fdB|e2f g2a bge|gbg faf g2e|dBA BGE E2F|]!
% Output from ABC2Win  Version 2.1 i on 5/17/2003
